src/telerik-icons/solid/digg.svg

<?xml version="1.0" encoding="utf-8"?>
<svg xmlns="http://www.w3.org/2000/svg" width="512" height="512" viewBox="0 0 512 512">
  <path d="M96 96v64H32v160h96V96H96zm64 0v32h32V96h-32zm0 64v160h32V160h-32zm64 0v160h64v32h-64v32h96V160h-96zm128 0v160h64v32h-64v32h96V160h-96zM64 192h32v96H64v-96zm192 0h32v96h-32v-96zm128 0h32v96h-32v-96z"/>
</svg>

<?xml version="1.0" encoding="utf-8"?>
<!-- Generator: Adobe Illustrator 24.2.0, SVG Export Plug-In . SVG Version: 6.00 Build 0)  -->
<svg xmlns="http://www.w3.org/2000/svg" width="512" height="512" viewBox="0 0 512 512">
<path d="M96,96v64H32v160h96V96H96z M160,96v32h32V96H160z M160,160v160h32V160H160z M224,160v160h64v32h-64v32h96V160H224z
	 M352,160v160h64v32h-64v32h96V160H352z M64,192h32v96H64V192z M256,192h32v96h-32V192z M384,192h32v96h-32V192z" />
</svg>
